X:15
T:West Street Assembly. Ru1.015
%%VWML:RutherfordVol1-2248-p8-0p8
Z:Transcription by Village Music Project, Steve Mansfield July 2015
F:http://www.village-music-project.org.uk/
F:http://www.vwml.org/record/RutherfordVol1/2248/p8
L:1/8
W:Cross over one Cu. and turn you[r] Partner .|. Cross
W:Over again and turn :| Lead up to the Top Foot
W:It and cast off .|. Hands all six & turn your Partner :|
Q:3/8=90
K:F
|:fcA cAF | FAc d3 | cde fed | cBA G3 |
fcA cAF | FAc d2f | cde fed | cAF F3 :|
|: f2a a2g | f2f fcA | FAc f2d | cBA G3 |
f2a a2f | g2f fcA | FAc f2d | cAF F3 :|
T:Westminster Bridge. Ru1.016
B:Rutherford's Country Dances Vol 1, 1756
Z:village music project, Steve Mansfield July 2015
M:6/8
L:1/8
W:The first Cu. Heys with the 2d Wo. .| The same
W:With the 2d Man :| Cross over two u. .|. Lead
W:Up to the Top Foot it and cast off :|
Q:3/8=90
K:F
|:c | fgf fge | f2F F2f | gag agf | g2G G2g |
gab agf | efg afd | gec (d/e/f)e | f2F F2 :|
|: c | ABc ABc | d2B B2d | ede efg | f2c c2e |
f2F f2F | f2F f2F | fed cdB | A2F F2 :|
